packages/core/src/svgs/tokens/branded/NFTX.svg

<svg width="24" height="24" viewBox="0 0 24 24" fill="none" xmlns="http://www.w3.org/2000/svg">
<path d="M8.47309 16.0132C8.63994 15.7812 8.79823 15.5607 8.98736 15.3464C6.71081 15.9172 5.14282 17.112 5.14282 18.4949C5.14282 18.5469 5.14569 18.5977 5.14969 18.6492C5.37254 18.5606 5.60854 18.4549 5.85882 18.3275C7.3628 17.5589 7.95252 16.7377 8.47309 16.0132ZM10.8445 18.556C11.2994 17.9217 11.6925 17.3749 12.8045 16.8075C13.9154 16.24 14.5719 16.2504 15.3324 16.2624C15.8422 16.2709 16.3914 16.2795 17.0616 16.1304C16.2444 15.6732 14.9016 15.328 13.7142 15.1429L11.905 16.4612L11.0822 15.6589C10.225 16.2589 9.78622 16.8697 9.38743 17.4235C8.93194 18.0577 8.53879 18.6046 7.42738 19.172C6.64796 19.5704 6.09253 19.684 5.56739 19.712C5.98168 20.2834 6.67881 20.7846 7.57138 21.1704C7.77937 21.0864 7.99824 20.9869 8.22852 20.8686C9.73369 20.1012 10.3234 19.28 10.8445 18.556ZM17.7314 16.9144C16.8622 16.9 15.877 16.884 14.373 17.6527C12.869 18.4212 12.2794 19.2424 11.7587 19.9669C11.3034 20.6 10.9102 21.1474 9.79876 21.7154C9.74982 21.7405 9.70049 21.7649 9.65076 21.7886C10.4257 21.9309 11.2121 22.0017 11.9999 22C12.1742 22 12.3462 21.9966 12.5159 21.9904C12.7942 21.684 13.0107 21.3834 13.2154 21.0989C13.6702 20.4646 14.0639 19.9172 15.1754 19.3504C16.2862 18.7824 16.9434 18.7932 17.7034 18.8052C18.0536 18.8109 18.4227 18.8166 18.8364 18.772C18.8507 18.6806 18.8576 18.588 18.8576 18.496C18.8576 17.928 18.5936 17.3927 18.125 16.9184C17.9954 16.9184 17.865 16.916 17.7314 16.9144ZM14.749 21.7064C16.5456 21.304 17.9394 20.5194 18.5376 19.5537C18.0239 19.6514 17.4399 19.8389 16.7439 20.1944C15.7742 20.6904 15.1844 21.2074 14.749 21.7064Z" fill="white"/>
<path d="M12.0001 2L4.28589 9.99988L12.0001 17.4285L19.7143 9.99988L12.0001 2Z" fill="url(#paint0_linear_364_2183)"/>
<path d="M12.0001 9.99988H4.28589L12.0001 2V9.99988Z" fill="url(#paint1_linear_364_2183)"/>
<defs>
<linearGradient id="paint0_linear_364_2183" x1="15.7184" y1="7.29108" x2="6.59954" y2="14.1777" gradientUnits="userSpaceOnUse">
<stop offset="0.09" stop-color="#FF6D41"/>
<stop offset="0.5" stop-color="#FA297F"/>
<stop offset="1" stop-color="#FA297F"/>
</linearGradient>
<linearGradient id="paint1_linear_364_2183" x1="13.7349" y1="4.16798" x2="6.3933" y2="11.3553" gradientUnits="userSpaceOnUse">
<stop stop-color="#652CB4"/>
<stop offset="0.07" stop-color="#652CB4" stop-opacity="0.82"/>
<stop offset="0.19" stop-color="#652CB4" stop-opacity="0.53"/>
<stop offset="0.3" stop-color="#652CB4" stop-opacity="0.3"/>
<stop offset="0.4" stop-color="#652CB4" stop-opacity="0.14"/>
<stop offset="0.49" stop-color="#652CB4" stop-opacity="0.04"/>
<stop offset="0.55" stop-color="#652CB4" stop-opacity="0"/>
</linearGradient>
</defs>
</svg>

<svg xmlns="http://www.w3.org/2000/svg" width="24" height="24" fill="none" viewBox="0 0 24 24">
    <path fill="#fff" d="M8.473 16.013c.167-.232.325-.452.514-.667-2.276.571-3.844 1.766-3.844 3.149q0 .078.007.154.334-.131.709-.322c1.504-.768 2.094-1.59 2.614-2.314m2.371 2.543c.455-.634.849-1.181 1.96-1.748 1.111-.568 1.768-.558 2.528-.546.51.009 1.06.017 1.73-.132-.818-.457-2.16-.802-3.348-.987l-1.809 1.318-.823-.802c-.857.6-1.296 1.21-1.695 1.765-.455.634-.848 1.18-1.96 1.748-.779.398-1.334.512-1.86.54.415.571 1.112 1.073 2.004 1.458q.312-.125.658-.301c1.505-.768 2.094-1.589 2.616-2.313m6.887-1.642c-.869-.014-1.854-.03-3.358.739-1.504.768-2.094 1.59-2.614 2.314-.456.633-.849 1.18-1.96 1.748l-.148.074a13 13 0 0 0 2.865.201c.278-.306.495-.607.7-.891.454-.634.848-1.182 1.96-1.749 1.11-.568 1.767-.557 2.527-.545.35.006.72.012 1.133-.033q.022-.137.022-.276c0-.568-.264-1.103-.733-1.578q-.194 0-.394-.004m-2.982 4.792c1.797-.402 3.19-1.187 3.789-2.152-.514.097-1.098.285-1.794.64-.97.496-1.56 1.013-1.995 1.512"/>
    <path fill="url(#NFTX__a)" d="m12 2-7.714 8L12 17.429l7.714-7.43z"/>
    <path fill="url(#NFTX__b)" d="M12 10H4.286L12 2z"/>
    <defs>
        <linearGradient id="NFTX__a" x1="15.718" x2="6.6" y1="7.291" y2="14.178" gradientUnits="userSpaceOnUse">
            <stop offset=".09" stop-color="#FF6D41"/>
            <stop offset=".5" stop-color="#FA297F"/>
            <stop offset="1" stop-color="#FA297F"/>
        </linearGradient>
        <linearGradient id="NFTX__b" x1="13.735" x2="6.393" y1="4.168" y2="11.355" gradientUnits="userSpaceOnUse">
            <stop stop-color="#652CB4"/>
            <stop offset=".07" stop-color="#652CB4" stop-opacity=".82"/>
            <stop offset=".19" stop-color="#652CB4" stop-opacity=".53"/>
            <stop offset=".3" stop-color="#652CB4" stop-opacity=".3"/>
            <stop offset=".4" stop-color="#652CB4" stop-opacity=".14"/>
            <stop offset=".49" stop-color="#652CB4" stop-opacity=".04"/>
            <stop offset=".55" stop-color="#652CB4" stop-opacity="0"/>
        </linearGradient>
    </defs>
</svg>
